assets/emojis/HushedFace.svg

<svg width="126" height="126" viewBox="0 0 126 126" fill="none" xmlns="http://www.w3.org/2000/svg">
<circle cx="62.917" cy="63.1494" r="62.3496" fill="#F9B42F"/>
<path opacity="0.3" fill-rule="evenodd" clip-rule="evenodd" d="M113.853 99.3197C102.531 110.911 86.7289 118.107 69.246 118.107C34.8113 118.107 6.89642 90.1917 6.89642 55.757C6.89642 42.3613 11.1209 29.9523 18.3102 19.7896C7.33251 31.0287 0.567383 46.4005 0.567383 63.3523C0.567383 97.787 28.4822 125.702 62.917 125.702C83.956 125.702 102.561 115.281 113.853 99.3197Z" fill="#BC8417"/>
<path d="M38.2906 62.9528C40.9455 62.9528 43.0978 60.8005 43.0978 58.1456C43.0978 55.4906 40.9455 53.3384 38.2906 53.3384C35.6357 53.3384 33.4834 55.4906 33.4834 58.1456C33.4834 60.8005 35.6357 62.9528 38.2906 62.9528Z" fill="#2C2A46"/>
<path d="M88.5474 62.9523C91.2024 62.9523 93.3546 60.8 93.3546 58.1451C93.3546 55.4901 91.2024 53.3379 88.5474 53.3379C85.8925 53.3379 83.7402 55.4901 83.7402 58.1451C83.7402 60.8 85.8925 62.9523 88.5474 62.9523Z" fill="#2C2A46"/>
<path d="M63.426 87.3661C67.777 87.3661 71.3041 82.0675 71.3041 75.5312C71.3041 68.995 67.777 63.6963 63.426 63.6963C59.075 63.6963 55.5479 68.995 55.5479 75.5312C55.5479 82.0675 59.075 87.3661 63.426 87.3661Z" fill="#2C2A46"/>
</svg>

<svg xmlns="http://www.w3.org/2000/svg" width="126" height="126" fill="none" viewBox="0 0 126 126"><circle cx="62.917" cy="63.149" r="62.35" fill="#f9b42f"/><path fill="#bc8417" fill-rule="evenodd" d="M113.853 99.32c-11.322 11.591-27.124 18.787-44.607 18.787-34.435 0-62.35-27.915-62.35-62.35 0-13.396 4.225-25.805 11.414-35.967C7.333 31.029.567 46.4.567 63.352c0 34.435 27.915 62.35 62.35 62.35 21.039 0 39.644-10.421 50.936-26.382" clip-rule="evenodd" opacity=".3"/><path fill="#2c2a46" d="M38.29 62.953a4.807 4.807 0 1 0 0-9.615 4.807 4.807 0 0 0 0 9.615m50.257-.001a4.807 4.807 0 1 0 0-9.614 4.807 4.807 0 0 0 0 9.614M63.426 87.366c4.351 0 7.878-5.299 7.878-11.835s-3.527-11.835-7.878-11.835-7.878 5.299-7.878 11.835 3.527 11.835 7.878 11.835"/></svg>
